public/Img/Home/features__AI.svg

<svg width="53" height="48" viewBox="0 0 53 48" fill="none" xmlns="http://www.w3.org/2000/svg">
<path fill-rule="evenodd" clip-rule="evenodd" d="M29.9873 3.48679C29.9873 4.91671 29.1265 6.14558 27.8949 6.68357V9.76318H43.2318C44.005 9.76318 44.6318 10.39 44.6318 11.1632V33.4681C44.6318 34.2413 44.005 34.8681 43.2318 34.8681H33.4745V39.052H36.2582C37.0314 39.052 37.6582 39.6788 37.6582 40.452V46.0203C37.6582 46.7935 37.0314 47.4203 36.2582 47.4203H16.7427C15.9695 47.4203 15.3427 46.7935 15.3427 46.0203V40.452C15.3427 39.6788 15.9695 39.052 16.7427 39.052H19.5273V34.8681H9.76914C8.99595 34.8681 8.36914 34.2413 8.36914 33.4681V11.1632C8.36914 10.39 8.99594 9.76318 9.76914 9.76318H25.1055V6.68333C23.8741 6.14521 23.0137 4.91649 23.0137 3.48679C23.0137 1.56109 24.5748 0 26.5005 0C28.4262 0 29.9873 1.56109 29.9873 3.48679ZM22.3172 22.3156C22.3172 23.8561 21.0683 25.105 19.5277 25.105C17.9872 25.105 16.7383 23.8561 16.7383 22.3156C16.7383 20.775 17.9872 19.5261 19.5277 19.5261C21.0683 19.5261 22.3172 20.775 22.3172 22.3156ZM33.4749 25.105C35.0154 25.105 36.2643 23.8561 36.2643 22.3156C36.2643 20.775 35.0154 19.5261 33.4749 19.5261C31.9343 19.5261 30.6854 20.775 30.6854 22.3156C30.6854 23.8561 31.9343 25.105 33.4749 25.105Z" fill="#6B7CFF"/>
<path fill-rule="evenodd" clip-rule="evenodd" d="M47.4197 27.8945C50.5008 27.8945 52.9985 25.3968 52.9985 22.3157C52.9985 19.2346 50.5008 16.7368 47.4197 16.7368V27.8945Z" fill="#6B7CFF"/>
<path fill-rule="evenodd" clip-rule="evenodd" d="M5.57935 27.8943C2.49822 27.8943 0.000480175 25.3966 0.000480175 22.3154C0.000480175 19.2343 2.49822 16.7366 5.57935 16.7366V27.8943Z" fill="#6B7CFF"/>
</svg>

<svg width="53" height="48" fill="none" xmlns="http://www.w3.org/2000/svg"><path fill-rule="evenodd" clip-rule="evenodd" d="M29.987 3.487c0 1.43-.86 2.659-2.092 3.197v3.08h15.337a1.4 1.4 0 0 1 1.4 1.4v22.304a1.4 1.4 0 0 1-1.4 1.4h-9.758v4.184h2.784a1.4 1.4 0 0 1 1.4 1.4v5.568a1.4 1.4 0 0 1-1.4 1.4H16.743a1.4 1.4 0 0 1-1.4-1.4v-5.568a1.4 1.4 0 0 1 1.4-1.4h2.784v-4.184H9.77a1.4 1.4 0 0 1-1.4-1.4V11.163a1.4 1.4 0 0 1 1.4-1.4h15.336v-3.08a3.488 3.488 0 1 1 4.882-3.196Zm-7.67 18.829a2.79 2.79 0 1 1-5.579 0 2.79 2.79 0 0 1 5.58 0Zm11.158 2.789a2.79 2.79 0 1 0 0-5.579 2.79 2.79 0 0 0 0 5.579ZM47.42 27.895a5.579 5.579 0 1 0 0-11.158v11.158ZM5.58 27.894a5.579 5.579 0 1 1 0-11.157v11.157Z" fill="#6B7CFF"/></svg>
